X: 168
T:Lamachree and Megrum
S:Rymour Club Miscellanea v1 via McColl, Folk Songs and Ballads of Scotland
M:4/4
L:1/4
R:bothy ballad
Q:1/4=96
K:EMin
% E mixolydian/dorian/minor pentatonic
E|B,E   E>F    |E>F       B2 ||\
  A>B   E(E/F/)|E<D       B, ||
D|A,>B, DE     |DE        F2 ||\
  A2    D2     |(F<E) ({D}E2)|]

An example from the far south of Scotland:

